icons/src/fluent/svg/error_circle_24_filled.svg

<svg width="24" height="24" viewBox="0 0 24 24" fill="none" xmlns="http://www.w3.org/2000/svg">
<path d="M12 2C17.523 2 22 6.478 22 12C22 17.522 17.523 22 12 22C6.477 22 2 17.522 2 12C2 6.478 6.477 2 12 2ZM12.0018 15.0037C11.4503 15.0037 11.0031 15.4508 11.0031 16.0024C11.0031 16.5539 11.4503 17.001 12.0018 17.001C12.5533 17.001 13.0005 16.5539 13.0005 16.0024C13.0005 15.4508 12.5533 15.0037 12.0018 15.0037ZM11.9996 7C11.4868 7.00018 11.0643 7.38638 11.0067 7.88374L11 8.00036L11.0018 13.0012L11.0086 13.1179C11.0665 13.6152 11.4893 14.0011 12.0022 14.0009C12.515 14.0007 12.9375 13.6145 12.9951 13.1171L13.0018 13.0005L13 7.99964L12.9932 7.88302C12.9353 7.3857 12.5125 6.99982 11.9996 7Z" fill="#212121"/>
</svg>

<svg width="24" height="24" fill="none" viewBox="0 0 24 24" xmlns="http://www.w3.org/2000/svg"><path d="M12 2c5.523 0 10 4.478 10 10s-4.477 10-10 10S2 17.522 2 12 6.477 2 12 2Zm.002 13.004a.999.999 0 1 0 0 1.997.999.999 0 0 0 0-1.997ZM12 7a1 1 0 0 0-.993.884L11 8l.002 5.001.007.117a1 1 0 0 0 1.986 0l.007-.117L13 8l-.007-.117A1 1 0 0 0 12 7Z" fill="#212121"/></svg>
